X: 3319
T: Bellbirds Of Kurrajong
R: slide
M: 12/8
K: Edorian
g2f e2d B2E EFE|g2f e2d A2D DED|
g2f e2d B2E EFE|GAB A2F E3 E3:|
G2B BAG F2A AGF|G2B BAG FGA GFE|
G2B BAG ABd e3|ded BAB G2E E3:|

